!!!OTL: 815a. Naechtlicher Besuch.
!!!ARE: Europa, Mitteleuropa, Deutschland, Schlesien, Hainau
!!!SCT: E0815
!!!TXL: @@DE
!!!YEM: Copyright 1995, estate of Helmut Schaffrath.
**kern	**text
*ICvox	*
*M2/4	*
*k[b-e-]	*
*B-:	*
!LO:TX:a:t=Sehr mäßig.	!
{8f	Jch
=1	=1
8b-	gieng
8b-	wol
8b-	näch-
16ddL	-ten
16ccJ	.
=2	=2
8b-L	ſpä-
8gJ	.
8f}	-te
{8b-	ins
=3	=3
8g	Gaſt-
8e-	-wirths
8f	Gär-
8cc	-te-
=4	=4
4b-	-lein;
8r}	.
{8b-	das
=5	=5
8cc	Gärt-
8b-	-lein
8cc	war
16ddL	ge-
16ffJ	.
=6	=6
8ee-L	-ʒie-
8ddJ	.
8cc}	-ret
{8dd	mit
=7	=7
8b-	ſchö-
8dd	-nen
8cc	Rö-
8b-	-ſe-
=8	=8
8aL	-lein,
8g	.
8fJ}	.
{8b-	mit
=9	=9
8g	ſchö-
8e-	-nen
8f	Rö-
8cc	-ſe-
=10	=10
4b-	-lein.
8r}	.
==	==
!!!AGN: Kilt - Lied
!!!ONB: ESAC (Essen Associative Code) Database: ERK2
!!!AMT: simple duple
!!!AIN: vox
!!!EED: Helmut Schaffrath
!!!EEV: 1.0
!!!GTL: Tagelieder und Kiltgesaenge
!!!URL-scan: https://rosdok.uni-rostock.de/mcrviewer/recordIdentifier/rosdok_ppn745177662/iview2/phys_0624.iview2?x=191.0544085554891&y=273.5156814674847&scale=0.7029437510502773&rotation=0&layout=singlePageLayout
!!!ENC: Anna Maria Matuszewska
!!!EEV: 2024/12/17
*-	*-
